X: 1
T:26th Regmt.Quickstep. HSJJ.058
T:Quickstep of the 26th.Regmt. HSJJ.058
M:6/8
L:1/8
Q:115
S:HSJ Jackson,Wyresdale,Lancs.1823
R:Quickstep
O:England
A:Lancashire
H:1823
Z:Chris Partington.
K:G
e|d2G BAG|ABAc2e|d2cB2A|Ggd Bcd|ede gdB|!ABAc2e|dBG cAF|GgdB2|
|G|Ggd (B/c/dB)|AaA c2A|!Ggd (B/c/dB)|Ggd Bcd|ede gdc|ABA c2e|d2cB2A|Ggd
B2|]
